components/ui-node-icon/src/unpivot/unpivot.large.svg

<svg width="32" height="32" viewBox="0 0 32 32" fill="none" xmlns="http://www.w3.org/2000/svg">
  <path d="M3 6C3 4.34315 4.34315 3 6 3H26C27.6569 3 29 4.34315 29 6V7C29 8.65685 27.6569 10 26 10H6C4.34315 10 3 8.65685 3 7V6Z" fill="var(--tbl--colors--icons--transformation--tertiary)"/>
  <path fill-rule="evenodd" clip-rule="evenodd" d="M10 26L10 3H6C4.34315 3 3 4.34315 3 6V26C3 27.6569 4.34315 29 6 29H7C8.65685 29 10 27.6569 10 26ZM12.7929 23.7929C12.4024 24.1834 12.4024 24.8166 12.7929 25.2071L15.7929 28.2071C16.1834 28.5976 16.8166 28.5976 17.2071 28.2071C17.5976 27.8166 17.5976 27.1834 17.2071 26.7929L15.8773 25.463C18.7313 25.3047 21.4602 24.6106 23.5729 22.8722C26.0627 20.8234 27.5 17.4921 27.5 12.5C27.5 11.9477 27.0523 11.5 26.5 11.5C25.9477 11.5 25.5 11.9477 25.5 12.5C25.5 17.1079 24.1873 19.7766 22.3021 21.3278C20.6812 22.6616 18.4956 23.2896 15.9597 23.4545L17.2071 22.2071C17.5976 21.8166 17.5976 21.1834 17.2071 20.7929C16.8166 20.4024 16.1834 20.4024 15.7929 20.7929L12.7929 23.7929Z" fill="var(--tbl--colors--icons--transformation--primary)"/>
</svg>

<svg xmlns="http://www.w3.org/2000/svg" width="32" height="32" fill="none" viewBox="0 0 32 32">
  <path fill="var(--tbl--colors--icons--transformation--tertiary)" d="M3 6a3 3 0 0 1 3-3h20a3 3 0 0 1 3 3v1a3 3 0 0 1-3 3H6a3 3 0 0 1-3-3V6Z"/>
  <path fill="var(--tbl--colors--icons--transformation--primary)" fill-rule="evenodd" d="M10 26V3H6a3 3 0 0 0-3 3v20a3 3 0 0 0 3 3h1a3 3 0 0 0 3-3Zm2.793-2.207a1 1 0 0 0 0 1.414l3 3a1 1 0 0 0 1.414-1.414l-1.33-1.33c2.854-.158 5.583-.852 7.696-2.59 2.49-2.05 3.927-5.38 3.927-10.373a1 1 0 1 0-2 0c0 4.608-1.313 7.277-3.198 8.828-1.62 1.334-3.806 1.962-6.342 2.127l1.247-1.248a1 1 0 0 0-1.414-1.414l-3 3Z" clip-rule="evenodd"/>
</svg>
